X: 37285
T: Skipper's
R: jig
M: 6/8
K: Dmajor
|:AFE DEF|G2B d2B|ABA A2F|E3 E>FG|
AFE DEF|G2B dcB|ABA F2E|D3 D>FG:|
|:A2F A2F|G3 G>FG|ABA AGF|E3 A,>FG|
AFE DEF|G2B dcB|ABA F2E|D3 D2z:|

